flaticon/productivity/help.svg

<svg xmlns="http://www.w3.org/2000/svg" width="32" height="32" viewBox="0 0 24 24">
    <path d="M11.355469 10.3125L12.585938 10.3125 12.585938 16.15625 11.355469 16.15625zM11.980469 7.816406C11.769531 7.816406 11.585938 7.894531 11.433594 8.046875 11.277344 8.203125 11.203125 8.386719 11.203125 8.597656 11.203125 8.8125 11.277344 8.992188 11.433594 9.148438 11.585938 9.300781 11.769531 9.378906 11.980469 9.378906 12.195312 9.378906 12.378906 9.300781 12.53125 9.148438 12.683594 8.992188 12.761719 8.8125 12.761719 8.597656 12.761719 8.386719 12.683594 8.203125 12.53125 8.046875 12.378906 7.894531 12.195312 7.816406 11.980469 7.816406zM11.980469 7.816406"/>
    <path d="M 20.484375 3.515625 C 15.800781 -1.171875 8.199219 -1.171875 3.515625 3.515625 C -1.171875 8.199219 -1.171875 15.800781 3.515625 20.484375 C 8.199219 25.171875 15.800781 25.171875 20.484375 20.484375 C 25.171875 15.800781 25.171875 8.199219 20.484375 3.515625 Z M 19.339844 3.910156 L 16.15625 7.09375 C 13.757812 5.054688 10.21875 5.0625 7.824219 7.109375 L 4.640625 3.925781 C 8.796875 0.132812 15.175781 0.128906 19.339844 3.910156 Z M 15.824219 15.824219 C 13.714844 17.9375 10.285156 17.9375 8.175781 15.824219 C 6.0625 13.714844 6.0625 10.285156 8.175781 8.175781 C 10.285156 6.0625 13.714844 6.0625 15.824219 8.175781 C 17.9375 10.289062 17.9375 13.714844 15.824219 15.824219 Z M 3.921875 4.648438 L 7.105469 7.832031 C 5.0625 10.222656 5.058594 13.757812 7.09375 16.15625 L 3.910156 19.339844 C 0.128906 15.175781 0.132812 8.804688 3.921875 4.648438 Z M 4.628906 20.0625 L 7.8125 16.878906 C 10.207031 18.941406 13.765625 18.949219 16.167969 16.894531 L 19.351562 20.078125 C 15.183594 23.875 8.789062 23.871094 4.628906 20.0625 Z M 20.074219 19.359375 L 16.890625 16.175781 C 18.949219 13.773438 18.945312 10.210938 16.878906 7.8125 L 20.0625 4.628906 C 23.871094 8.792969 23.875 15.191406 20.074219 19.359375 Z M 20.074219 19.359375"/>
</svg>

<svg xmlns="http://www.w3.org/2000/svg" width="32" height="32" viewBox="0 0 24 24">
    <path d="M11.355 10.313h1.23v5.843h-1.23zm0 0M11.98 7.816a.75.75 0 0 0-.546.23.75.75 0 0 0-.23.552c0 .214.073.394.23.55a.75.75 0 0 0 .546.23.753.753 0 0 0 .551-.23.759.759 0 0 0 .23-.55.765.765 0 0 0-.23-.551.753.753 0 0 0-.55-.23zm0 0"/>
    <path d="M20.484 3.516c-4.683-4.688-12.285-4.688-16.968 0-4.688 4.683-4.688 12.285 0 16.968 4.683 4.688 12.285 4.688 16.968 0 4.688-4.683 4.688-12.285 0-16.968zm-1.144.394l-3.184 3.184a6.43 6.43 0 0 0-8.332.015L4.641 3.926C8.797.133 15.176.129 19.34 3.91zm-3.516 11.914a5.406 5.406 0 0 1-7.648 0 5.406 5.406 0 0 1 0-7.648 5.406 5.406 0 0 1 7.648 0 5.406 5.406 0 0 1 0 7.648zM3.922 4.648l3.183 3.184a6.428 6.428 0 0 0-.011 8.324L3.91 19.34C.13 15.176.133 8.805 3.922 4.648zm.707 15.415l3.184-3.184a6.424 6.424 0 0 0 8.355.016l3.184 3.183c-4.168 3.797-10.563 3.793-14.723-.015zm15.445-.704l-3.183-3.183a6.426 6.426 0 0 0-.012-8.363l3.183-3.184c3.81 4.164 3.813 10.562.012 14.73zm0 0"/>
</svg>
